X:1
T:Santa Anna's Retreat
M:4/4
L:1/8
R:reel
K:Amix
|"A"ABcd e2 a2| e2 a2 edef| "G"G4 B2 g2|
M: 6/4
|f2 g2 edBc d2 cd|
M: 4/4
| "A"e2 a2 e2 a2| edef "G"gfga| b2 ef gfed|"Am"=c2 A2 A4 :|
|:"A"e2a2a2a2|abag ed^cd|"G"edef gfgf|edBde2e2 |
| "Am"ABAG EGAB| =c2 A2 e2 AB| "A"c2 cd edef| "G"g2 B2 "A"A4|]
